public/themes/EC/images/arrow-down.svg

<svg width="492" height="292" viewBox="0 0 492 292" xmlns="http://www.w3.org/2000/svg"><title>Path</title><path d="M484.132 24.986L468.016 8.758c-5.072-5.068-11.82-7.86-19.032-7.86-7.208 0-13.964 2.792-19.036 7.86l-183.84 183.848L62.056 8.554C56.992 3.486 50.236.698 43.028.698c-7.208 0-13.968 2.788-19.036 7.856L7.872 24.682c-10.496 10.488-10.496 27.572 0 38.06l219.136 219.924c5.064 5.064 11.812 8.632 19.084 8.632h.084c7.212 0 13.96-3.572 19.024-8.632L484.132 63.338c5.072-5.064 7.856-12.016 7.864-19.224 0-7.212-2.792-14.068-7.864-19.128z" fill="#FFF"/></svg>

<?xml version="1.0" encoding="UTF-8"?>
<svg width="492px" height="292px" viewBox="0 0 492 292" version="1.1" xmlns="http://www.w3.org/2000/svg" xmlns:xlink="http://www.w3.org/1999/xlink">
    <!-- Generator: Sketch 61 (89581) - https://sketch.com -->
    <title>Path</title>
    <desc>Created with Sketch.</desc>
    <g id="Page-1" stroke="none" stroke-width="1" fill="none" fill-rule="evenodd">
        <g id="CalendarView" transform="translate(-19.000000, -19.000000)" fill="#FFFFFF" fill-rule="nonzero">
            <g id="download" transform="translate(19.000000, 19.000000)">
                <path d="M484.132,24.986 L468.016,8.758 C462.944,3.69 456.196,0.898 448.984,0.898 C441.776,0.898 435.02,3.69 429.948,8.758 L246.108,192.606 L62.056,8.554 C56.992,3.486 50.236,0.698 43.028,0.698 C35.82,0.698 29.06,3.486 23.992,8.554 L7.872,24.682 C-2.624,35.17 -2.624,52.254 7.872,62.742 L227.008,282.666 C232.072,287.73 238.82,291.298 246.092,291.298 L246.176,291.298 C253.388,291.298 260.136,287.726 265.2,282.666 L484.132,63.338 C489.204,58.274 491.988,51.322 491.996,44.114 C491.996,36.902 489.204,30.046 484.132,24.986 Z" id="Path"></path>
            </g>
        </g>
    </g>
</svg>
